!!!COM: Bach, Johann Sebastian
!!!CDT: 1685///-1750///
!!!CNT@EN: German
!!!OTL: Prelude from Cello Suite No. 1 in G Major, BWV 1007
!!!OPR: Cello Suite No. 1 in G Major, BWV 1007
!!!OMD: Prelude
!!!OMV: 1
!!!ODT: 1720///
!!!SCT: BWV 1007
!!!SCA: Thematisch-systematisches Verzeichnis der musikalischen Werke Johann Sebastian Bach: Bach-Werke-Verzeichnis (Schmieder)
**kern
*Icello
*clefF4
*k[f#]
*met(C)
*M4/4
*MM88
=1-
(16GG\LL
16D\)
16B\
16A\JJ
(16B\LL
16D\
16B\
16D\JJ)
(16GG\LL
16D\)
16B\
16A\JJ
(16B\LL
16D\
16B\
16D\JJ)
=2
(16GG\LL
16E\)
16c\
16B\JJ
(16c\LL
16E\
16c\)
16E\JJ
(16GG\LL
16E\)
16c\
16B\JJ
(16c\LL
16E\
16c\
16E\JJ)
=3
(16GG\LL
16F#\)
16c\
16B\JJ
(16c\LL
16F#\
16c\
(16F#\JJ)
16GG\LL
16F#\)
16c\
16B\JJ
(16c\LL
16F#\
16c\
(16F#\JJ)
=4
16GG\LL
16G\)
16B\
16A\JJ
(16B\LL
16G\
16B\
(16G\JJ)
16GG\LL
16G\)
16B\
16A\JJ
(16B\LL
16G\
16B\
(16F#\JJ)
=5
16GG\LL
16E\)
16B\
16A\JJ
(16B\LL
16G\
16F#\
16G\JJ)
(16E\LL
16G\
16F#\
16G\JJ)
(16BB/LL
16D/
16C#/
16BB/JJ)
=6
(16C#\LL
16G\)
16A\
16G\JJ
(16A\LL
16G\
16A\
16G\JJ)
(16C#\LL
16G\)
16A\
16G\JJ
(16A\LL
16G\
16A\
16G\JJ)
=7
(16F#\LL
16A\)
16d\
16c#\JJ
(16d\LL
16A\
16G\
16A\JJ)
(16F#\LL
16A\
16G\
16A\JJ)
(16D\LL
16F#\
16E\
16D\JJ)
=8
(16EE/LL
16BB/)
16G/
16F#/JJ
(16G\LL
16BB\
16G\
16BB\JJ)
(16EE/LL
16BB/)
16G/
16F#/JJ
(16G\LL
16BB\
16G\
16BB\JJ)
=9
(16EE/LL
16C#/
16D/
16E/JJ)
(16D/LL
16C#/
16BB/
16AA/JJ)
(16G\LL
16F#\
16E\)
16d\JJ
16c#\LL
16B\
16A\
16G\JJ
=10
(16F#\LL
16E\)
16D\
16d\JJ
16A\LL
16d\
16F#\
16A\JJ
16D\LL
16E\
16F#\
16A\JJ
16G\LL
16F#\
16E\
16D\JJ
=11
16G#\LL
(16D\
16Fn\
16E\JJ)
16Fn\LL
16D\
16G#\
16D\JJ
(16B\LL
16D\
16Fn\
16E\JJ)
16Fn\LL
16D\
16G#\
16D\JJ
=12
(16C\LL
16E\
16A\
16B\JJ)
(16c\LL
16A\
16E\
(16D\JJ)
16C\LL
16E\
16A\
16B\JJ)
(16c\LL
16A\
16F#\
16E\JJ)
=13
(16D#\LL
16F#\)
16D#\
16F#\JJ
(16A\LL
16F#\
16A\
(16F#\JJ)
16D#\LL
16F#\)
16D#\
16F#\JJ
(16A\LL
16F#\
16A\
16F#\JJ)
=14
(16G\LL
16F#\
16E\)
16G\JJ
16F#\LL
16G\
16A\
16F#\JJ
16G\LL
16F#\
16E\
16D\JJ
16C/LL
16BB/
16AA/
16GG/JJ
=15
(16FF#/LL
16C/)
16D/
16C/JJ
16D/LL
16C/
16D/
16C/JJ
(16FF#/LL
16C/)
16D/
16C/JJ
16D/LL
16C/
16D/
16C/JJ
=16
(16GG/LL
16BB/)
16Fn/
16E/JJ
(16F\LL
16BB\
16F\)
16BB\JJ
(16GG/LL
16BB/)
16F/
16E/JJ
(16F\LL
16BB\
16F\)
16BB\JJ
=17
(16GG/LL
16C/)
16E/
16D/JJ
(16E\LL
16C\
16E\
16C\JJ)
(16GG/LL
16C/)
16E/
16D/JJ
(16E\LL
16C\
16E\
16C\JJ)
=18
(16GG\LL
16F#\)
16c\
16B\JJ
(16c\LL
16F#\
16c\
16F#\JJ)
(16GG\LL
16F#\)
16c\
16B\JJ
(16c\LL
16F#\
16c\
16F#\JJ)
=19
(16GG\LL
16D\)
16B\
16A\JJ
(16B\LL
16G\
16F#\
16E\JJ)
16D/LL
16C/
16BB/
16AA/JJ
16GG/LL
16FF#/
16EE/
16DD/JJ
=20
(16CC#/LL
16AA/)
16E/
16F#/JJ
(16G\LL
16E\
16F#\
16G\JJ)
(16CC#/LL
16AA/)
16E/
16F#/JJ
(16G\LL
16E\
16F#\
16G\JJ)
=21
(16CCn/LL
16AA/)
16D/
16E/JJ
(16F#\LL
16D\
16E\
16F#\JJ)
(16CC/LL
16AA/)
16D/
16E/JJ
(16F#\LL
16D\
16E\
16F#\JJ)
=22
(16CC/LL
16AA/)
16D/
16F#/JJ
(16A\LL
16c#\J)
[8d;\J
16d/LL]
16AA/
16BB/
16Cn/JJ
16D\LL
16E\
16F#\
16G\JJ
=23
16A\LL
16F#\
16D\
16E\JJ
16F#\LL
16G\
16A\
16B\JJ
16c\LL
16A\
16F#\
16G\JJ
16A\LL
16B\
16c\
16d\JJ
=24
(16e-\LL
16d\
16c#\
16d\JJ)
(16d\LL
16cn\
16B\
16c\JJ)
16c\LL
16A\
16F#\
16En\JJ
16D/LL
16AA/
16BB/
16C/JJ
=25
(16DD/LL
16AA/
16D/)
16F#/JJ
16A\LL
16B\
16c\
16A\JJ
(16B\LL
16G\)
16D\
16C\JJ
(16BB/LL
16GG/
16AA/
16BB/JJ)
=26
(16DD/LL
16GG/
16BB/
16D/JJ)
(16G\LL
16A\)
16B\
16G\JJ
(16c#\LL
16B-\
16A\
16B-\JJ)
(16B-\LL
16A\
16G#\
16A\JJ)
=27
(16A\LL
16Gn\
16F#\
16G\JJ)
(16G\LL
16E\
16C#\
16BB\JJ)
16AA\LL
(16C#\
16E\)
16G\JJ
16A\LL
16c#\
16d\
16c#\JJ
=28
(16d\LL
16A\
16F#\)
16E\JJ
16F#\LL
16A\
16D\
16F#\JJ
16AA/LL
16D/
16C#/
16BB/JJ
16AA/LL
16GG/
16FF#/
16EE/JJ
=29
8DD\L
(16cn\L
16B\JJ
16A\LL
16G\
16F#\
16E\JJ
16D\LL)
(16c\
16B\
16A\JJ
16G\LL
16F#\
16E\
16D\JJ
=30
16C\LL)
(16B\
16A\
16G\JJ
16F#\LL
16E\
16D\
16C\JJ
16BB\LL)
(16A\
16G\
16F#\JJ
16E/LL
16D/
16C/
16BB/JJ
=31
16AA\LL
(16G\)
16F#\
16E\JJ)
16F#\LL
16A\
16D\
16A\JJ
16E\LL
16A\
16F#\
16A\JJ
16G\LL
16A\
16E\
16A\JJ
=32
16F#\LL
16A\
16D\
16A\JJ
16G\LL
16A\
16E\
16A\JJ
16F#\LL
16A\
16D\
16A\JJ
16G\LL
16A\
16E\
16A\JJ
=33
16F#\LL
16A\
16D\
16A\JJ
16E\LL
16A\
16F#\
16A\JJ
16G\LL
16A\JJ
16A/LL
16A/JJ
16B\LL
16D\JJ
16A/LL
16A/JJ
=34
16A\LL
16B\JJ
16A/LL
16A/JJ
16c\LL
16D\JJ
16A/LL
16A/JJ
16BB\LL
16C\JJ
16A/LL
16A/JJ
16D\LL
16BB\JJ
16A/LL
16A/JJ
=35
16c\LL
16B\JJ
16A/LL
16A/JJ
16c\LL
16A\JJ
16A/LL
16A/JJ
16B\LL
16A\JJ
16A/LL
16A/JJ
16B\LL
16G\JJ
16A/LL
16A/JJ
=36
16A\LL
16G\JJ
16A/LL
16A/JJ
16A\LL
16F#\JJ
16A/LL
16A/JJ
16G\LL
16A\
16F#\
16A\JJ
16G\LL
16A\
16E\
16A\JJ
=37
16F#\LL
16A\
(16D\
16E\JJ)
16Fn\LL
16D\
16F#\
16D\JJ
16G\LL
16D\
16G#\
16D\JJ
16A\LL
16D\
16B-\
16D\JJ
=38
16Bn\LL
16D\
16c\
16D\JJ
16c#\LL
16D\
16d\
16D\JJ
16e-\LL
16D\
16en\
16D\JJ
16fn\LL
16D\
(16f#\
16D\JJ)
=39
(16g\LL
16B\)
16D\
16B\JJ
(16g\LL
16B\
16g\
16B\JJ)
(16g\LL
16B\)
16D\
16B\JJ
(16g\LL
16B\
16g\
16B\JJ)
=40
(16g\LL
16A\)
16D\
16A\JJ
(16g\LL
16A\
16g\
16A\JJ)
(16g\LL
16A\)
16D\
16A\JJ
(16g\LL
16A\
16g\
16A\JJ)
=41
(16f#\LL
16c\)
16D\
16c\JJ
(16f#\LL
16c\
16f#\
16c\JJ)
(16f#\LL
16c\)
16D\
16c\JJ
(16f#\LL
16c\
16f#\
16c\JJ)
=42
GGq/
1B; 1g;
==
*-
!!!ENC: Craig Stuart Sapp
!!!END: 2004/12/01/
